X: 41937
T: Walking Down Sheepscar Street
R: jig
M: 6/8
K: Dmajor
~A3 AFA|Bcd efg|faf gfe|fed edB|
A2 B AFA|BB/c/d efg|f/g/af gfe|fdc d2:|
fdd dcd|BAG A2 G|FEF DEF|G2 F EF/G/A|
1 fdA dcd|BB/A/G A2 g|f/g/af gfe|fdc d2:|
2 f2 d FAd|g2 d Bdg|faf gec|Adc d2:|

